assets/steelseries/mono.svg

<svg viewBox="0 0 24 24" xmlns="http://www.w3.org/2000/svg"><path d="m14.08008 0c-1.00234 0-1.8125.80893-1.8125 1.8086v2.57226c-4.01871.7444-7.19505 3.9119-7.93946 7.91992h-2.51562c-1.001 0-1.8125.80698-1.8125 1.80664 0 .99833.8115 1.8086 1.8125 1.8086h2.51563c.85264 4.59338 4.90062 8.08398 9.75195 8.08398 5.46876 0 9.91992-4.43852 9.91992-9.89258 0-4.83662-3.50067-8.87524-8.10742-9.72656v-2.57227c0-.99966-.8115-1.80859-1.8125-1.80859zm-9.38672 3.17578c-1.00368 0-1.8164.80955-1.8164 1.81055 0 .99966.81272 1.8125 1.8164 1.8125 1.001 0 1.8164-.81284 1.8164-1.8125 0-1.001-.8154-1.81055-1.8164-1.81055zm9.38672 4.65625c3.46809 0 6.29297 2.81398 6.29297 6.2754 0 3.46006-2.82488 6.27734-6.29297 6.27734-3.46943 0-6.29297-2.81728-6.29297-6.27735 0-3.4614 2.82354-6.27539 6.29297-6.27539zm-.01758 2.4043c-2.14634 0-3.89258 1.73986-3.89258 3.88086s1.74624 3.88281 3.89258 3.88281 3.89258-1.74182 3.89258-3.88281c0-2.141-1.74624-3.88086-3.89258-3.88086zm0 2.7168c.6455 0 1.16797.51989 1.16797 1.16406 0 .64283-.52246 1.16797-1.16797 1.16797-.64417 0-1.16992-.52514-1.16992-1.16797 0-.64417.52575-1.16407 1.16992-1.16407z"/></svg>

<svg xmlns="http://www.w3.org/2000/svg" viewBox="0 0 24 24"><path d="M14.08 0a1.81 1.81 0 0 0-1.812 1.809V4.38c-4.02.744-7.195 3.912-7.94 7.92H1.812a1.808 1.808 0 1 0 0 3.615h2.516A9.926 9.926 0 0 0 14.08 24C19.55 24 24 19.561 24 14.107c0-4.836-3.5-8.875-8.107-9.726V1.809c0-1-.812-1.809-1.813-1.809M4.693 3.176a1.812 1.812 0 1 0 0 3.623A1.817 1.817 0 0 0 6.51 4.986c0-1-.816-1.81-1.817-1.81m9.387 4.656c3.468 0 6.293 2.814 6.293 6.275 0 3.46-2.825 6.278-6.293 6.278-3.47 0-6.293-2.818-6.293-6.278 0-3.461 2.824-6.275 6.293-6.275m-.017 2.404c-2.147 0-3.893 1.74-3.893 3.881S11.916 18 14.062 18s3.893-1.742 3.893-3.883a3.89 3.89 0 0 0-3.892-3.88m0 2.717a1.165 1.165 0 1 1 0 2.332c-.645 0-1.17-.525-1.17-1.168 0-.644.525-1.164 1.17-1.164"/></svg>
